X: 240
T: A Jig For Sarah
R: jig
M: 6/8
K: Cmajor
|:D|E^DE GEC|G,CD EDC|FEF G,B,B,|G,DD FED|
E^DE GEC|G,CD EDC|FEF G,B,C|D^CD =C2:|
|:G|cBc CEG|cBc edc|BGG B,GG|B^AB dG/=A/B|
[1 cBc CE/F/G|cBc edc|BGG FB,C|D^CD =C2:|
[2 AFA Gce|fdB cGE|B^AB dG/=A/B|d^cd =c2||

